X:1
T:Vedro'l mio Sol
T:Vedro'l mio Sol
T:Giulio Caccini
T:Source : Le nuovo Musische di G.Caccini detto Romano---Firenze---G.Marescotti---1601. Editor : André Vierendeels (10/07/15).
T:Notes : Original clefs : C1, C4 Editorial accidentals above the staff Figures in BC are notated in original print m 7-8 : rhytmic editorial alterations after original print 
C:Giulio Caccini
%%score 1 { 2 | 3 }
L:1/8
Q:1/4=76
M:4/4
K:C
V:1 treble nm="Soprano" snm="S"
V:2 treble nm="BC" snm="BC"
V:3 bass 
V:1
 z4 B4 | c2 B2 A4 | B4 ^F2 G>A | BA G/^F/E E4 | ^F4 z2 A2 | G2 B3 B A2 | %6
w: Ve-|dro'il mio Sol,|Ve- dro'il _ _|_ _ _ _ _ mio|Sol, ve-|dro pri- ma ch'io|
[M:3/2] G>AG>A B>c A2 B>ABG |[M:4/4] A^CDE ^F2 ^G2 | A8 | AA^FG A2 B2 | A2 d2 A2 B/A/A/G/ | A8 | %12
w: muo- * * * * * * * * * *|ia, quel so- spi- ra- to|gior-|no che fac- cia'l vo- stro|rag- gio'a me ri- * * *|tor-|
 G8 | B>c d4 B/A/G/^F/ | G2 ^FE F4 | E8 | e6 de |: c2 BA B4 | A4 A2 EE | ^F3 F G3 G | A2 A2 B4 | %21
w: no,.|O _ mia lu- * * *|* ce, O mi-|a,|O mia _|lu- ce'O mia gio-|ia, be piu m'è|dol- c'il tor- men-|tar per vui,|
 A2 AB c2 GG | A8 | G8 | B6 ^FF | ^F3 F B2 F2 | G4 z2 E2 | ^F4 F4 | B2 ^F2 A4- | A2 A2 G2- G/A/B | %30
w: O ch'el gio- ir per al-|tru-|i,|ma sen- za|mor- te'io non po-|tro sof-|fri- re|un si lon-|* go mar- * * *|
 ^F8 | EEGA BB,CE | ^F/D/E/F/ G/A/B/c/ d2 G2 | A8 | GBAG ^FDFG | AcBA GEGA | B>c B>c d2 G2 | A8 | %38
w: ti-|re, es' io- mor- ro, mor- ra mia|spe- * * * * * * * * me'an-|co-|ra, di ve- der mai d'un si bel|di, di ve- der mai d'un si bel|di _ _ _ _ l'Au-|ro-|
 G2 G2 B2 c2 | d6 G2 |1 A8 || G8 | B>c d2 dc B/A/G/F/ | G2 ^FE F4 | E8 |1 c>d e2 dc/d/ e2 :|2 %46
w: ra, d'un si bel|di l'Au-|ro-|ra.|O- * * mia _ _ _ _ _|lu- ce'o mia gio-|ia,|O _ _ mia _ _ _|
 B2 c2 d/>c/B c/A/B/G/ || A8 | G2 G2 B2 c2 | d6 c2 | Bc d/B/c/A/ Bc/A/ B/A/B/G/ | %51
w: di l'Au- ro- * * * * * *|||||
 A/>B/G/>A/ ^F/>G/F/>G/ A/D/E/F/ G/A/B/c/ | d/>e/c/>d/ B/>c/B/>c/ d/B/c/A/ B/A/B/G/ | A8 | G8 | %55
w: |||ra.|
 z8 |] %56
w: |
V:2
 z8 | z8 | z8 | z8 | z8 | z8 |[M:3/2] z12 |[M:4/4] z8 | z8 | z8 | z8 | z8 | z8 | z8 | z8 | z8 | %16
 z8 |: z8 | z8 | z8 | z8 | z8 | z8 | z8 | z8 | z8 | z8 | z8 | z8 | z8 | z8 | z8 | z8 | z8 | z8 | %35
 z8 | z8 | z8 | z8 | z8 |1 z8 || z8 | z8 |"^#" z8 | z8 |1 z8 :|2 z8 || z8 | z8 | z8 | z8 | z8 | %52
 z8 | z8 | z8 | z8 |] %56
V:3
 G,4 G,,4 |"^11""^#10" C,4 D,2 D,2 | G,,4 D,4 |"^11" G,,4 A,,2 A,,2 |"^#10" D,4 D,,4 | %5
 G,,4 G,2 ^F,2 |[M:3/2]"^7" E,4 E,2 E,2 E,4 |[M:4/4]"^#6" D,4 D,2 B,,2 | %8
"^11""^#10""^14" A,,4 A,,2 A,,2 | D,,4 D,2 B,,C, | D,3 E, ^F,2 G,2 | %11
"^11""^#10""^14" D,4 D,,2 D,,2 | G,,8 | G,4 D,4 |"^-natural""^6""^11""^#10" E,2 C,2 B,,2 B,,2 | %15
 E,8 | C,4 G,,4 |:"^4""^4    #3" A,,2 F,2 E,2 E,2 |"^#" A,,4 A,,4 | D,4 G,4 | %20
"^11""^#10" D,2 D,2 G,,4 |"^6" D,4 C,2 B,,2 |"^11""^#10""^14" D,4 D,2 D,2 | G,,8 | %24
"^#" G,,2 A,,2 B,,4 | B,,8 |"^-natural""^6" E,2 D,2 C,2 C,2 | B,,8 |"^13""^#10" B,,4 A,,2 A,,2 | %29
"^11""^11" B,,4 B,,4 |"^#10" B,,4 B,,4 |"^-natural" E,2 C,2 B,,4 |"^-natural" B,,4 G,,4 | %33
"^11""^#10" D,4 D,4 |"^-natural" G,,4 D,2 B,,2 |"^-natural" A,,4 E,2 C,2 |"^-natural" B,,4 G,,4 | %37
"^11""^#10""^14" D,4 D,2 D,2 |"^-natural" G,4 E,4 |"^6" D,2 C,2 B,,4 |1 %40
"^11""^#10""^14" D,4 D,,2 D,,2 || G,,8 | G,4 D,4 |"^6""^#" E,2 C,2 B,,4 | E,8 |1 A,,4 E,2 C,2 :|2 %46
"^-natural" B,,4 G,,4 ||"^11""^#10""^14" D,4 D,2 D,2 |"^-natural" G,4 E,4 | D,2 C,2 B,,2 A,,2 | %50
 G,,8 | D,8 | D,8 |"^11""^#10""^14" D,,4 D,,2 D,,2 | G,,8 | z8 |] %56

